X: 1
T:Heel and Toe Polka
M:2/4
L:1/16
S:Devil's Box Vol 11 #2   6/77
N:As played by Ernie Hodges
Z:transcribed by Frank Maloy
K:G
Bc|:"G"d2b2|"D7"c2a2|"G"B2g2 gdBG|"D7"F2e2 edcA|"G"G2e2 efBc|!
"G"d2b2 "D7"c2a2|"G"B2g2 gdBG|"D7"F2e2 edcA|1"G"G2g2 G2Bc:|2"G"G2g2 G3A|
|!
"G"B2d2 "C"c2e2|"G"d2bd bdbd|"D7"c2ac acac|"G"B2gB gBgd|!
"G"B2d2 "C"c2e2|"G"d2bd bdbd|"D7"c2ac acac|"G"B2g2 g2ga|!
"C"g2e2 egfe|"G"d2B2 DGBd|"D7"c2A2 DFAc|"G"B2G2 G2ga|!
"C"g2e2 egfe|"G"d2B2 DGBd|"D7"c2A2 DFAc|"G"B2G2 G2||!
